svgs/sharp-light/file-chart-pie.svg

<svg xmlns="http://www.w3.org/2000/svg" viewBox="0 0 384 512"><!--! Font Awesome Pro 6.6.0 by @fontawesome - https://fontawesome.com License - https://fontawesome.com/license (Commercial License) Copyright 2024 Fonticons, Inc. --><path d="M352 480L32 480 32 32l160 0 0 144 0 16 16 0 144 0 0 288zM224 37.3L346.7 160 224 160l0-122.7zM232 0L32 0 0 0 0 32 0 480l0 32 32 0 320 0 32 0 0-32 0-328L232 0zM176 216l0 16 0 96 0 16 16 0 96 0 16 0 0-16c0-61.9-50.1-112-112-112l-16 0zm32 33.6c31.3 6.4 56 31.1 62.4 62.4L208 312l0-62.4zm-56-21C105.7 242.4 72 285.3 72 336c0 61.9 50.1 112 112 112c50.7 0 93.6-33.7 107.4-80l-34 0c-12.3 28.3-40.5 48-73.3 48c-44.2 0-80-35.8-80-80c0-32.8 19.7-61 48-73.3l0-34z"/></svg>

<svg xmlns="http://www.w3.org/2000/svg" viewBox="0 0 384 512"><!--! Font Awesome Pro 6.4.2 by @fontawesome - https://fontawesome.com License - https://fontawesome.com/license (Commercial License) Copyright 2023 Fonticons, Inc. --><path d="M352 480H32V32H192V176v16h16H352V480zM224 37.3L346.7 160H224V37.3zM232 0H32 0V32 480v32H32 352h32V480 152L232 0zM176 216v16 96 16h16 96 16V328c0-61.9-50.1-112-112-112H176zm32 33.6c31.3 6.4 56 31.1 62.4 62.4H208V249.6zm-56-21C105.7 242.4 72 285.3 72 336c0 61.9 50.1 112 112 112c50.7 0 93.6-33.7 107.4-80h-34c-12.3 28.3-40.5 48-73.3 48c-44.2 0-80-35.8-80-80c0-32.8 19.7-61 48-73.3v-34z"/></svg>
